public/Paper Plane.svg

<svg width="152" height="152" viewBox="0 0 152 152" fill="none" xmlns="http://www.w3.org/2000/svg">
<g clip-path="url(#clip0_38_4406)">
<mask id="mask0_38_4406" style="mask-type:alpha" maskUnits="userSpaceOnUse" x="0" y="0" width="152" height="152">
<rect width="152" height="152" rx="32" fill="#215CFF"/>
</mask>
<g mask="url(#mask0_38_4406)">
<rect width="152" height="152" fill="#04B159"/>
</g>
<path fill-rule="evenodd" clip-rule="evenodd" d="M107.957 50.1073C108.172 48.6963 107.57 47.2824 106.406 46.4519C105.242 45.6244 103.709 45.5202 102.444 46.184C92.3205 51.5004 56.9064 70.093 46.0294 75.8024C44.6869 76.5049 43.8951 77.9397 44.0112 79.4489C44.1273 80.9581 45.1275 82.2559 46.5623 82.7471C56.9927 86.3221 88.162 97.0085 95.9253 99.6697C96.988 100.036 98.1608 99.9079 99.1223 99.3274C100.084 98.744 100.736 97.7646 100.905 96.6513L107.957 50.1073ZM49.4884 79.0291L96.6099 95.1838L103.343 50.7562L49.4884 79.0291Z" fill="white"/>
<path fill-rule="evenodd" clip-rule="evenodd" d="M70.415 88.7989L106.264 51.3905C107.115 50.5004 107.085 49.0865 106.195 48.2352C105.308 47.3808 103.891 47.4106 103.04 48.3006L67.1912 85.7091C66.3369 86.5991 66.3667 88.0131 67.2567 88.8674C68.1467 89.7188 69.5607 89.689 70.415 88.7989Z" fill="white"/>
<path fill-rule="evenodd" clip-rule="evenodd" d="M71.0334 100.986V87.254C71.0334 86.0217 70.0333 85.0215 68.8009 85.0215C67.5685 85.0215 66.5684 86.0217 66.5684 87.254V102.486C66.5684 103.98 67.4465 105.335 68.8069 105.945C70.1702 106.558 71.7627 106.314 72.879 105.32C76.9333 101.718 84.3126 95.1572 84.3126 95.1572C85.2324 94.3386 85.3158 92.9277 84.4972 92.0049C83.6786 91.0851 82.2676 91.0017 81.3478 91.8203L71.0334 100.986Z" fill="white"/>
</g>
<defs>
<clipPath id="clip0_38_4406">
<rect width="152" height="152" fill="white"/>
</clipPath>
</defs>
</svg>

<svg xmlns="http://www.w3.org/2000/svg" width="152" height="152" fill="none"><g clip-path="url(#a)"><mask id="b" width="152" height="152" x="0" y="0" maskUnits="userSpaceOnUse" style="mask-type:alpha"><rect width="152" height="152" fill="#215CFF" rx="32"/></mask><g mask="url(#b)"><path fill="#04B159" d="M0 0h152v152H0z"/></g><path fill="#fff" fill-rule="evenodd" d="M107.957 50.107a3.793 3.793 0 0 0-5.513-3.923C92.32 51.5 56.906 70.093 46.029 75.802a3.791 3.791 0 0 0 .533 6.945L95.925 99.67a3.8 3.8 0 0 0 3.197-.343 3.8 3.8 0 0 0 1.783-2.676zM49.488 79.03 96.61 95.184l6.733-44.428z" clip-rule="evenodd"/><path fill="#fff" fill-rule="evenodd" d="m70.415 88.799 35.849-37.408a2.233 2.233 0 0 0-3.224-3.09L67.191 85.709a2.234 2.234 0 0 0 .066 3.158c.89.852 2.304.822 3.158-.068" clip-rule="evenodd"/><path fill="#fff" fill-rule="evenodd" d="M71.033 100.986V87.254a2.233 2.233 0 0 0-4.465 0v15.232a3.792 3.792 0 0 0 6.311 2.834c4.054-3.602 11.434-10.163 11.434-10.163a2.232 2.232 0 1 0-2.965-3.337z" clip-rule="evenodd"/></g><defs><clipPath id="a"><path fill="#fff" d="M0 0h152v152H0z"/></clipPath></defs></svg>
